X:239
T:Mrs Ramsay of Barnton
B:RSCDS Book 20
Z:Nigel Gatherer
M:4/4
L:1/8
K:Em
E>FG>A B<e e2|d>BA>G F<DD>F|E>FG>A B<ee>f|g>eB>^d e/e/e e>f|
g>ef>^d e<BB>^c|d>BA>G F<DD>F|E<GF>A G>Be>g|f<da>f g<ee>f|
g<ef>^d e<BB>^c|d>BA>G F<DD>f|g>ef>^d eBB>e|B>e^d>f e2-e>f|
g>eB>g f<^de>^c|d>BA<d F>D^C>F|E>GF>A G<Be>g|b<Bg>f e4|]
<end>
<start>
